src/images/svg/blog/facebook.svg

<svg width="24" height="24" viewBox="0 0 24 24" fill="none" xmlns="http://www.w3.org/2000/svg">
<circle cx="12" cy="12" r="12" fill="#333333"/>
<path d="M15.6621 5.25281L13.9082 5.25C11.9377 5.25 10.6643 6.55403 10.6643 8.57237V10.1042H8.90079C8.7484 10.1042 8.625 10.2275 8.625 10.3796V12.5991C8.625 12.7512 8.74854 12.8743 8.90079 12.8743H10.6643V18.4747C10.6643 18.6268 10.7877 18.75 10.9401 18.75H13.241C13.3933 18.75 13.5167 18.6267 13.5167 18.4747V12.8743H15.5787C15.7311 12.8743 15.8545 12.7512 15.8545 12.5991L15.8553 10.3796C15.8553 10.3066 15.8262 10.2366 15.7746 10.185C15.7229 10.1333 15.6526 10.1042 15.5794 10.1042H13.5167V8.80565C13.5167 8.18151 13.6658 7.86467 14.4803 7.86467L15.6619 7.86424C15.8141 7.86424 15.9375 7.74093 15.9375 7.58897V5.52808C15.9375 5.37626 15.8142 5.25309 15.6621 5.25281Z" fill="white"/>
</svg>

<svg width="24" height="24" fill="none" xmlns="http://www.w3.org/2000/svg"><circle cx="12" cy="12" r="12" fill="#333"/><path d="m15.662 5.253-1.754-.003c-1.97 0-3.244 1.304-3.244 3.322v1.532H8.901a.276.276 0 0 0-.276.276v2.22c0 .151.124.274.276.274h1.763v5.6c0 .153.124.276.276.276h2.301a.276.276 0 0 0 .276-.275v-5.6h2.062a.275.275 0 0 0 .275-.276l.001-2.22a.275.275 0 0 0-.276-.275h-2.062V8.806c0-.624.149-.941.963-.941h1.182a.275.275 0 0 0 .275-.276v-2.06a.276.276 0 0 0-.275-.276z" fill="#fff"/></svg>
